public/images/about.svg

<?xml version="1.0" encoding="UTF-8" standalone="no"?>
<svg width="12px" height="22px" viewBox="0 0 12 22" version="1.1" xmlns="http://www.w3.org/2000/svg" xmlns:xlink="http://www.w3.org/1999/xlink">
    <!-- Generator: Sketch 42 (36781) - http://www.bohemiancoding.com/sketch -->
    <title>Slice 1</title>
    <desc>Created with Sketch.</desc>
    <defs></defs>
    <g id="Page-1" stroke="none" stroke-width="1" fill="none" fill-rule="evenodd">
        <g id="about" fill-rule="nonzero" fill="#FFFFFF">
            <path d="M0.2676282,0.99 L0.2676282,4.5012179 L5.2035256,4.5012179 C6.8740433,4.5012179 8.2211538,5.8483285 8.2211538,7.5188462 C8.2211538,9.1775168 6.8740433,10.5252564 5.2035256,10.5252564 L1.8605769,10.5252564 L1.8605769,15.6294231 L5.3717949,15.6294231 L5.3717949,14.0448805 C8.8964145,13.9554062 11.7323718,11.0648545 11.7323718,7.5188462 C11.7323718,3.9621283 8.8961461,1.08192729 5.3717949,0.99281179 L5.3717949,0.99 L0.2676282,0.99 Z M3.7788462,16.8858333 C2.364846,16.8858333 1.2211538,18.0295255 1.2211538,19.4435256 C1.2211538,20.8470825 2.364846,21.99 3.7788462,21.99 C5.1824062,21.99 6.3253205,20.8470825 6.3253205,19.4435256 C6.3253205,18.0295255 5.1824062,16.8858333 3.7788462,16.8858333 Z" id="?"></path>
        </g>
    </g>
</svg>

<svg width="12" height="22" viewBox="0 0 12 22" xmlns="http://www.w3.org/2000/svg"><title>Slice 1</title><path d="M.268.99v3.511h4.936a3.013 3.013 0 1 1 0 6.024H1.86v5.104h3.51v-1.584a6.533 6.533 0 0 0 6.361-6.526A6.526 6.526 0 0 0 5.372.993V.99H.268zm3.51 15.896a2.553 2.553 0 1 0 2.546 2.558 2.553 2.553 0 0 0-2.545-2.558z" fill-rule="nonzero" fill="#FFF"/></svg>
